X: 4
T:Angels We Have Heard on High (Duet) [G]
M:4/4
L:1/4
C:Traditional (French Carol), English Words: James Chadwick
S:An Online Christmas Songbook
Z:ABC by Thornton Rose, December 2001
N:Original score in F.
K:G
V:0
B B B d | d>c B2 | B A B d | B>A G2 |
B B B d | d>c B2 | B A B d | B>A G2 |
(d2 e/2d/2c/2B/2 | c2 d/2c/2B/2A/2 | B2 c/2B/2A/2G/2 | A>)D D2 |
G A B c | B2 A2 |
(d2 e/2d/2c/2B/2 | c2 d/2c/2B/2A/2 | B2 c/2B/2A/2G/2 | A>)D D2 |
G A B c | (B2 A2) | G4 |]
V:1
G G G G | G>G G2 | G F G G | G>F G2 |
G G G G | G>G G2 | G F G G | G>F G2 |
(B A ^G E | E2 D F | G3 E | F)>F F2 | E D D E | G2 F2 |
(B A ^G E | E2 D F | G3 E | F)>F F2 | G F G A | (A G2 F) | G4 |]
%--------------------------------------------------------------------
